web/app/assets/img/logo.svg

<svg width="542px" height="115px" viewBox="0 0 542 115" version="1.1" xmlns="http://www.w3.org/2000/svg"
     xmlns:xlink="http://www.w3.org/1999/xlink">
    <g id="Page-1" stroke="none" stroke-width="1" fill="currentColor" fill-rule="evenodd">
        <g id="Artboard" transform="translate(-11.000000, -11.000000)" fill="currentColor">
            <g id="Group" transform="translate(11.000000, 11.000000)">
                <path d="M4.9921875,33.8359375 L4.9921875,57 L0.1875,57 L0.1875,0.125 L19.5625,0.125 C25.4739879,0.125 30.14191,1.63540156 33.5664062,4.65625 C36.9909025,7.67709844 38.703125,11.8307027 38.703125,17.1171875 C38.703125,22.4557559 37.0560061,26.5768084 33.7617188,29.4804688 C30.4674314,32.3841291 25.6953438,33.8359375 19.4453125,33.8359375 L4.9921875,33.8359375 Z M4.9921875,29.7734375 L19.5625,29.7734375 C24.2239816,29.7734375 27.7786336,28.6666777 30.2265625,26.453125 C32.6744914,24.2395723 33.8984375,21.1536656 33.8984375,17.1953125 C33.8984375,13.2630012 32.6810018,10.1315221 30.2460938,7.80078125 C27.8111857,5.47004043 24.3541891,4.27864609 19.875,4.2265625 L4.9921875,4.2265625 L4.9921875,29.7734375 Z M100.757812,41.0625 L74.9375,41.0625 L69.078125,57 L64.0390625,57 L85.5625,0.125 L90.1328125,0.125 L111.65625,57 L106.65625,57 L100.757812,41.0625 Z M76.421875,36.9609375 L99.234375,36.9609375 L87.828125,5.984375 L76.421875,36.9609375 Z M167.265625,33.328125 L150.742188,33.328125 L150.742188,57 L145.898438,57 L145.898438,0.125 L164.375,0.125 C170.442739,0.125 175.182275,1.59633945 178.59375,4.5390625 C182.005225,7.48178555 183.710938,11.5963277 183.710938,16.8828125 C183.710938,20.5286641 182.64324,23.7447777 180.507812,26.53125 C178.372385,29.3177223 175.50783,31.2447863 171.914062,32.3125 L186.132812,56.4921875 L186.132812,57 L181.015625,57 L167.265625,33.328125 Z M150.742188,29.2265625 L165.46875,29.2265625 C169.505229,29.2265625 172.747384,28.0807406 175.195312,25.7890625 C177.643241,23.4973844 178.867188,20.5286641 178.867188,16.8828125 C178.867188,12.8723758 177.591159,9.76042773 175.039062,7.546875 C172.486966,5.33332227 168.906273,4.2265625 164.296875,4.2265625 L150.742188,4.2265625 L150.742188,29.2265625 Z M253.5,41.0625 L227.679688,41.0625 L221.820312,57 L216.78125,57 L238.304688,0.125 L242.875,0.125 L264.398438,57 L259.398438,57 L253.5,41.0625 Z M229.164062,36.9609375 L251.976562,36.9609375 L240.570312,5.984375 L229.164062,36.9609375 Z M303.601562,52.9375 L331.6875,52.9375 L331.6875,57 L298.757812,57 L298.757812,0.125 L303.601562,0.125 L303.601562,52.9375 Z M371.75,52.9375 L399.835938,52.9375 L399.835938,57 L366.90625,57 L366.90625,0.125 L371.75,0.125 L371.75,52.9375 Z M466.460938,29.734375 L439.859375,29.734375 L439.859375,52.9375 L470.445312,52.9375 L470.445312,57 L435.054688,57 L435.054688,0.125 L470.25,0.125 L470.25,4.2265625 L439.859375,4.2265625 L439.859375,25.671875 L466.460938,25.671875 L466.460938,29.734375 Z M511.40625,52.9375 L539.492188,52.9375 L539.492188,57 L506.5625,57 L506.5625,0.125 L511.40625,0.125 L511.40625,52.9375 Z"
                      id="PARALLEL"></path>
                <path d="M5.90332031,99.3837891 L7.71972656,99.3837891 C8.72559097,99.3837891 9.60448843,99.2055682 10.3564453,98.8491211 C11.1084022,98.492674 11.6821269,98.0043976 12.0776367,97.3842773 C12.4731465,96.7641571 12.6708984,96.0488322 12.6708984,95.2382812 C12.6708984,93.8710869 12.2851601,92.8017617 11.5136719,92.0302734 C10.7421836,91.2587852 9.63379629,90.8730469 8.18847656,90.8730469 C6.82128223,90.8730469 5.70068796,91.2758749 4.82666016,92.081543 C3.95263235,92.8872111 3.515625,93.9492122 3.515625,95.2675781 L1.7578125,95.2675781 C1.7578125,94.164057 2.03613003,93.1557663 2.59277344,92.2426758 C3.14941685,91.3295853 3.92089351,90.6240259 4.90722656,90.1259766 C5.89355962,89.6279272 6.98729868,89.3789062 8.18847656,89.3789062 C10.12208,89.3789062 11.6455022,89.9062447 12.7587891,90.9609375 C13.8720759,92.0156303 14.4287109,93.4609283 14.4287109,95.296875 C14.4287109,96.3222708 14.1040072,97.2670855 13.4545898,98.1313477 C12.8051725,98.9956098 11.9140682,99.642576 10.78125,100.072266 C12.1093816,100.443361 13.115231,101.080562 13.7988281,101.983887 C14.4824253,102.887212 14.8242188,103.963861 14.8242188,105.213867 C14.8242188,107.040048 14.2285216,108.50976 13.0371094,109.623047 C11.8456972,110.736334 10.2539162,111.292969 8.26171875,111.292969 C6.99218115,111.292969 5.82764202,111.039065 4.76806641,110.53125 C3.7084908,110.023435 2.8881865,109.312993 2.30712891,108.399902 C1.72607131,107.486812 1.43554688,106.424811 1.43554688,105.213867 L3.19335938,105.213867 C3.19335938,106.571296 3.66698745,107.677242 4.61425781,108.531738 C5.56152817,109.386235 6.77733633,109.813477 8.26171875,109.813477 C9.77539819,109.813477 10.9545856,109.425297 11.7993164,108.648926 C12.6440472,107.872555 13.0664062,106.747078 13.0664062,105.272461 C13.0664062,103.846673 12.6098678,102.757816 11.6967773,102.005859 C10.7836868,101.253902 9.43848545,100.87793 7.66113281,100.87793 L5.90332031,100.87793 L5.90332031,99.3837891 Z M21.421289,111 L21.421289,89.671875 L27.383203,89.671875 C29.1312586,89.671875 30.6986258,90.0698202 32.0853515,90.8657227 C33.4720772,91.6616251 34.5536093,92.8017504 35.3299804,94.2861328 C36.1063514,95.7705152 36.4945312,97.4599515 36.4945312,99.3544922 L36.4945312,101.317383 C36.4945312,103.221689 36.1087928,104.911125 35.3373046,106.385742 C34.5658164,107.860359 33.4794014,108.998043 32.0780272,109.798828 C30.6766531,110.599613 29.0677824,111 27.2513671,111 L21.421289,111 Z M23.2230468,91.2099609 L23.2230468,109.476562 L27.2660155,109.476562 C29.5121205,109.476562 31.3138603,108.731941 32.671289,107.242676 C34.0287176,105.753411 34.7074218,103.739271 34.7074218,101.200195 L34.7074218,99.3251953 C34.7074218,96.8740112 34.0384832,94.9111402 32.7005858,93.4365234 C31.3626885,91.9619067 29.6000108,91.2197266 27.4124999,91.2099609 L23.2230468,91.2099609 Z M64.0734372,105.023438 L54.39082,105.023438 L52.1935544,111 L50.303906,111 L58.375195,89.671875 L60.0890622,89.671875 L68.1603513,111 L66.2853513,111 L64.0734372,105.023438 Z M54.9474607,103.485352 L63.5021482,103.485352 L59.2248044,91.8691406 L54.9474607,103.485352 Z M89.2740231,111 L87.4722652,111 L75.2115231,92.7480469 L75.2115231,111 L73.3951168,111 L73.3951168,89.671875 L75.2115231,89.671875 L87.4869137,107.938477 L87.4869137,89.671875 L89.2740231,89.671875 L89.2740231,111 Z M98.9912105,111 L97.1894526,111 L97.1894526,89.671875 L98.9912105,89.671875 L98.9912105,111 Z M109.265038,89.671875 L117.131249,108.495117 L125.026757,89.671875 L127.429101,89.671875 L127.429101,111 L125.627343,111 L125.627343,101.712891 L125.773828,92.1914062 L117.834374,111 L116.442773,111 L108.532617,92.2646484 L108.679101,101.654297 L108.679101,111 L106.877343,111 L106.877343,89.671875 L109.265038,89.671875 Z M146.711718,105.023438 L137.029101,105.023438 L134.831835,111 L132.942187,111 L141.013476,89.671875 L142.727343,89.671875 L150.798632,111 L148.923632,111 L146.711718,105.023438 Z M137.585742,103.485352 L146.140429,103.485352 L141.863085,91.8691406 L137.585742,103.485352 Z M168.616405,91.2099609 L161.306835,91.2099609 L161.306835,111 L159.505077,111 L159.505077,91.2099609 L152.210155,91.2099609 L152.210155,89.671875 L168.616405,89.671875 L168.616405,91.2099609 Z M176.356054,111 L174.554296,111 L174.554296,89.671875 L176.356054,89.671875 L176.356054,111 Z M200.003905,101.493164 C200.003905,103.456065 199.664553,105.17968 198.985839,106.664062 C198.307125,108.148445 197.337896,109.291012 196.078124,110.091797 C194.818352,110.892582 193.363289,111.292969 191.71289,111.292969 C189.222643,111.292969 187.210944,110.401864 185.677733,108.619629 C184.144523,106.837393 183.377929,104.432632 183.377929,101.405273 L183.377929,99.2080078 C183.377929,97.2646387 183.722164,95.5434645 184.410644,94.0444336 C185.099124,92.5454027 186.073235,91.3930704 187.333007,90.5874023 C188.592779,89.7817343 190.04296,89.3789062 191.683593,89.3789062 C193.324226,89.3789062 194.771965,89.7744101 196.026855,90.5654297 C197.281744,91.3564493 198.250972,92.4746021 198.934569,93.9199219 C199.618167,95.3652416 199.974608,97.0400295 200.003905,98.9443359 L200.003905,101.493164 Z M198.202147,99.1787109 C198.202147,96.6103387 197.621099,94.5986401 196.458983,93.1435547 C195.296868,91.6884693 193.705087,90.9609375 191.683593,90.9609375 C189.701161,90.9609375 188.121587,91.6909107 186.944823,93.1508789 C185.76806,94.6108471 185.179687,96.649401 185.179687,99.2666016 L185.179687,101.493164 C185.179687,104.022474 185.765618,106.026848 186.937499,107.506348 C188.10938,108.985847 189.701161,109.725586 191.71289,109.725586 C193.753916,109.725586 195.345696,108.995613 196.48828,107.535645 C197.630864,106.075676 198.202147,104.042005 198.202147,101.43457 L198.202147,99.1787109 Z M222.523827,111 L220.722069,111 L208.461327,92.7480469 L208.461327,111 L206.644921,111 L206.644921,89.671875 L208.461327,89.671875 L220.736718,107.938477 L220.736718,89.671875 L222.523827,89.671875 L222.523827,111 Z M242.114061,105.755859 C242.114061,104.574213 241.699026,103.639164 240.868944,102.950684 C240.038862,102.262204 238.520322,101.607913 236.31328,100.987793 C234.106238,100.367673 232.494926,99.6914099 231.479296,98.9589844 C230.033976,97.9238229 229.311327,96.5664146 229.311327,94.8867188 C229.311327,93.2558512 229.982707,91.9301809 231.325487,90.909668 C232.668267,89.8891551 234.384559,89.3789062 236.474413,89.3789062 C237.890436,89.3789062 239.157513,89.652341 240.275682,90.1992188 C241.393852,90.7460965 242.260543,91.5078076 242.87578,92.484375 C243.491018,93.4609424 243.798632,94.5497987 243.798632,95.7509766 L241.982225,95.7509766 C241.982225,94.2958912 241.484184,93.1264693 240.488085,92.2426758 C239.491986,91.3588823 238.154109,90.9169922 236.474413,90.9169922 C234.843545,90.9169922 233.54473,91.2807581 232.577929,92.0083008 C231.611127,92.7358435 231.127733,93.685541 231.127733,94.8574219 C231.127733,95.9414117 231.562299,96.8251919 232.431444,97.5087891 C233.300589,98.1923862 234.692177,98.7954075 236.606249,99.3178711 C238.520321,99.8403346 239.970502,100.382321 240.956835,100.943848 C241.943168,101.505374 242.685348,102.176754 243.183397,102.958008 C243.681447,103.739262 243.930468,104.662104 243.930468,105.726562 C243.930468,107.406258 243.259088,108.753901 241.916307,109.769531 C240.573527,110.785161 238.803525,111.292969 236.606249,111.292969 C235.102335,111.292969 233.722954,111.024417 232.468065,110.487305 C231.213176,109.950193 230.261037,109.198247 229.61162,108.231445 C228.962203,107.264644 228.637499,106.156256 228.637499,104.90625 L230.439257,104.90625 C230.439257,106.410164 231.000774,107.596675 232.123827,108.46582 C233.246879,109.334965 234.741005,109.769531 236.606249,109.769531 C238.266413,109.769531 239.599408,109.403324 240.605272,108.670898 C241.611137,107.938473 242.114061,106.966803 242.114061,105.755859 Z M260.698827,114.955078 L259.219335,114.955078 L259.219335,89.671875 L260.698827,89.671875 L260.698827,114.955078 Z M283.853905,108.363281 L283.971092,108.817383 L284.102928,108.363281 L290.811913,89.671875 L292.789452,89.671875 L284.849998,111 L283.121483,111 L275.18203,89.671875 L277.14492,89.671875 L283.853905,108.363281 Z M300.221483,111 L298.419725,111 L298.419725,89.671875 L300.221483,89.671875 L300.221483,111 Z M316.076365,102.123047 L309.880076,102.123047 L309.880076,111 L308.06367,111 L308.06367,89.671875 L314.992381,89.671875 C317.267783,89.671875 319.045109,90.2236273 320.324412,91.3271484 C321.603716,92.4306696 322.243358,93.9736229 322.243358,95.9560547 C322.243358,97.323249 321.842971,98.5292917 321.042186,99.5742188 C320.241401,100.619146 319.167193,101.341795 317.81953,101.742188 L323.151561,110.80957 L323.151561,111 L321.232615,111 L316.076365,102.123047 Z M309.880076,100.584961 L315.402537,100.584961 C316.916217,100.584961 318.132025,100.155278 319.049998,99.2958984 C319.967972,98.4365191 320.426951,97.323249 320.426951,95.9560547 C320.426951,94.4521409 319.948441,93.2851604 318.991405,92.4550781 C318.034368,91.6249958 316.691608,91.2099609 314.963084,91.2099609 L309.880076,91.2099609 L309.880076,100.584961 Z M342.551365,91.2099609 L335.241795,91.2099609 L335.241795,111 L333.440037,111 L333.440037,91.2099609 L326.145115,91.2099609 L326.145115,89.671875 L342.551365,89.671875 L342.551365,91.2099609 Z M362.786131,89.671875 L362.786131,104.232422 C362.776365,105.667976 362.458986,106.917963 361.833982,107.982422 C361.208979,109.04688 360.32764,109.864743 359.189939,110.436035 C358.052238,111.007327 356.746099,111.292969 355.271482,111.292969 C353.025377,111.292969 351.226079,110.680182 349.873533,109.45459 C348.520987,108.228998 347.820311,106.532237 347.771482,104.364258 L347.771482,89.671875 L349.558592,89.671875 L349.558592,104.100586 C349.558592,105.89747 350.071282,107.291499 351.096678,108.282715 C352.122074,109.273931 353.513661,109.769531 355.271482,109.769531 C357.029304,109.769531 358.41845,109.271489 359.438963,108.275391 C360.459476,107.279292 360.969725,105.892587 360.969725,104.115234 L360.969725,89.671875 L362.786131,89.671875 Z M381.101951,105.023438 L371.419334,105.023438 L369.222068,111 L367.33242,111 L375.403709,89.671875 L377.117576,89.671875 L385.188865,111 L383.313865,111 L381.101951,105.023438 Z M371.975975,103.485352 L380.530662,103.485352 L376.253318,91.8691406 L371.975975,103.485352 Z M392.240037,109.476562 L402.772264,109.476562 L402.772264,111 L390.423631,111 L390.423631,89.671875 L392.240037,89.671875 L392.240037,109.476562 Z M425.692966,102.123047 L419.496677,102.123047 L419.496677,111 L417.680271,111 L417.680271,89.671875 L424.608982,89.671875 C426.884384,89.671875 428.66171,90.2236273 429.941013,91.3271484 C431.220317,92.4306696 431.859959,93.9736229 431.859959,95.9560547 C431.859959,97.323249 431.459572,98.5292917 430.658787,99.5742188 C429.858002,100.619146 428.783794,101.341795 427.436131,101.742188 L432.768162,110.80957 L432.768162,111 L430.849216,111 L425.692966,102.123047 Z M419.496677,100.584961 L425.019138,100.584961 C426.532818,100.584961 427.748626,100.155278 428.666599,99.2958984 C429.584573,98.4365191 430.043552,97.323249 430.043552,95.9560547 C430.043552,94.4521409 429.565042,93.2851604 428.608006,92.4550781 C427.650969,91.6249958 426.308209,91.2099609 424.579685,91.2099609 L419.496677,91.2099609 L419.496677,100.584961 Z M450.644529,100.775391 L440.668943,100.775391 L440.668943,109.476562 L452.138669,109.476562 L452.138669,111 L438.867185,111 L438.867185,89.671875 L452.065427,89.671875 L452.065427,91.2099609 L440.668943,91.2099609 L440.668943,99.2519531 L450.644529,99.2519531 L450.644529,100.775391 Z M469.546287,105.023438 L459.863669,105.023438 L457.666404,111 L455.776755,111 L463.848044,89.671875 L465.561912,89.671875 L473.633201,111 L471.758201,111 L469.546287,105.023438 Z M460.42031,103.485352 L468.974998,103.485352 L464.697654,91.8691406 L460.42031,103.485352 Z M480.684372,109.476562 L491.216599,109.476562 L491.216599,111 L478.867966,111 L478.867966,89.671875 L480.684372,89.671875 L480.684372,109.476562 Z M498.970896,111 L497.169138,111 L497.169138,89.671875 L498.970896,89.671875 L498.970896,111 Z M520.90488,91.2099609 L513.59531,91.2099609 L513.59531,111 L511.793552,111 L511.793552,91.2099609 L504.49863,91.2099609 L504.49863,89.671875 L520.90488,89.671875 L520.90488,91.2099609 Z M532.702146,101.302734 L539.2207,89.671875 L541.300778,89.671875 L533.5957,102.972656 L533.5957,111 L531.793942,111 L531.793942,102.972656 L524.103513,89.671875 L526.242185,89.671875 L532.702146,101.302734 Z"
                      id="3D-ANIMATIONS-|-VIRT"></path>
            </g>
        </g>
    </g>
</svg>

<svg width="542" height="115" viewBox="0 0 542 115" xmlns="http://www.w3.org/2000/svg"><path d="M4.992 33.836V57H.188V.125h19.375c5.911 0 10.579 1.51 14.003 4.531 3.425 3.021 5.137 7.175 5.137 12.461 0 5.339-1.647 9.46-4.941 12.363-3.295 2.904-8.067 4.356-14.317 4.356H4.992zm0-4.063h14.57c4.662 0 8.217-1.106 10.665-3.32 2.447-2.213 3.671-5.3 3.671-9.258 0-3.932-1.217-7.063-3.652-9.394-2.435-2.331-5.892-3.522-10.371-3.574H4.992v25.546zm95.766 11.29h-25.82L69.078 57H64.04L85.562.125h4.57L111.657 57h-5l-5.898-15.938zM76.422 36.96h22.812L87.828 5.984 76.422 36.961zm90.844-3.633h-16.524V57h-4.844V.125h18.477c6.068 0 10.807 1.471 14.219 4.414 3.411 2.943 5.117 7.057 5.117 12.344 0 3.646-1.068 6.862-3.203 9.648-2.136 2.787-5 4.714-8.594 5.782l14.219 24.18V57h-5.117l-13.75-23.672zm-16.524-4.101h14.727c4.036 0 7.278-1.146 9.726-3.438 2.448-2.292 3.672-5.26 3.672-8.906 0-4.01-1.276-7.123-3.828-9.336-2.552-2.214-6.133-3.32-10.742-3.32h-13.555v25zM253.5 41.062h-25.82L221.82 57h-5.039L238.305.125h4.57L264.398 57h-5L253.5 41.062zm-24.336-4.101h22.813L240.57 5.984l-11.406 30.977zm74.438 15.977h28.086V57h-32.93V.125h4.844v52.813zm68.148 0h28.086V57h-32.93V.125h4.844v52.813zm94.71-23.204h-26.6v23.203h30.585V57h-35.39V.125h35.195v4.102h-30.39v21.445h26.6v4.062zm44.946 23.203h28.086V57h-32.93V.125h4.844v52.813zM5.903 99.384H7.72c1.006 0 1.884-.178 2.636-.535.752-.356 1.326-.845 1.722-1.465.395-.62.593-1.335.593-2.146 0-1.367-.386-2.436-1.157-3.208-.772-.771-1.88-1.157-3.326-1.157-1.367 0-2.487.403-3.361 1.209-.874.805-1.311 1.867-1.311 3.186H1.758a5.7 5.7 0 0 1 .835-3.025 5.61 5.61 0 0 1 2.314-2.117c.987-.498 2.08-.747 3.281-.747 1.934 0 3.458.527 4.57 1.582 1.114 1.055 1.67 2.5 1.67 4.336 0 1.025-.324 1.97-.973 2.834-.65.865-1.54 1.512-2.674 1.941 1.328.371 2.334 1.009 3.018 1.912.683.903 1.025 1.98 1.025 3.23 0 1.826-.595 3.296-1.787 4.409-1.191 1.113-2.783 1.67-4.775 1.67-1.27 0-2.434-.254-3.494-.762s-1.88-1.218-2.46-2.131c-.582-.913-.872-1.975-.872-3.186h1.757c0 1.357.474 2.463 1.421 3.318.948.854 2.163 1.281 3.648 1.281 1.513 0 2.693-.388 3.537-1.164.845-.776 1.267-1.902 1.267-3.377 0-1.425-.456-2.514-1.37-3.266-.912-.752-2.258-1.128-4.035-1.128H5.903v-1.494zM21.421 111V89.672h5.962c1.748 0 3.316.398 4.702 1.194 1.387.796 2.469 1.936 3.245 3.42.776 1.485 1.165 3.174 1.165 5.068v1.963c0 1.905-.386 3.594-1.158 5.069-.771 1.474-1.858 2.612-3.259 3.413-1.401.8-3.01 1.201-4.827 1.201h-5.83zm1.802-19.79v18.267h4.043c2.246 0 4.048-.745 5.405-2.234 1.358-1.49 2.036-3.504 2.036-6.043v-1.875c0-2.451-.669-4.414-2.006-5.888-1.338-1.475-3.101-2.217-5.289-2.227h-4.189zm40.85 13.813h-9.682L52.194 111h-1.89l8.071-21.328h1.714L68.16 111h-1.875l-2.212-5.977zm-9.126-1.538h8.555L59.225 91.87l-4.278 11.616zM89.274 111h-1.802l-12.26-18.252V111h-1.817V89.672h1.817l12.275 18.266V89.672h1.787V111zm9.717 0H97.19V89.672h1.802V111zm10.274-21.328l7.866 18.823 7.896-18.823h2.402V111h-1.802v-9.287l.147-9.522-7.94 18.809h-1.391l-7.91-18.735.146 9.39V111h-1.802V89.672h2.388zm37.447 15.351h-9.683L134.832 111h-1.89l8.071-21.328h1.714L150.8 111h-1.875l-2.212-5.977zm-9.126-1.538h8.554l-4.277-11.616-4.277 11.616zm31.03-12.275h-7.31V111h-1.8V91.21h-7.296v-1.538h16.406v1.538zm7.74 19.79h-1.802V89.672h1.802V111zm23.648-9.507c0 1.963-.34 3.687-1.018 5.171-.679 1.484-1.648 2.627-2.908 3.428-1.26.8-2.715 1.201-4.365 1.201-2.49 0-4.502-.891-6.035-2.673-1.533-1.783-2.3-4.187-2.3-7.215v-2.197c0-1.943.344-3.665 1.033-5.164.688-1.499 1.662-2.65 2.922-3.457 1.26-.805 2.71-1.208 4.35-1.208 1.641 0 3.089.395 4.344 1.186 1.255.791 2.224 1.91 2.908 3.355.683 1.445 1.04 3.12 1.069 5.024v2.55zm-1.802-2.314c0-2.569-.58-4.58-1.743-6.035-1.162-1.456-2.754-2.183-4.775-2.183-1.983 0-3.562.73-4.74 2.19-1.176 1.46-1.764 3.498-1.764 6.116v2.226c0 2.53.586 4.534 1.757 6.013 1.172 1.48 2.764 2.22 4.776 2.22 2.04 0 3.633-.73 4.775-2.19 1.143-1.46 1.714-3.494 1.714-6.101v-2.256zM222.524 111h-1.802l-12.26-18.252V111h-1.817V89.672h1.816l12.276 18.266V89.672h1.787V111zm19.59-5.244c0-1.182-.415-2.117-1.245-2.805-.83-.689-2.349-1.343-4.556-1.963-2.207-.62-3.818-1.297-4.834-2.029-1.445-1.035-2.168-2.393-2.168-4.072 0-1.631.672-2.957 2.014-3.977 1.343-1.02 3.06-1.531 5.15-1.531 1.415 0 2.683.273 3.8.82 1.119.547 1.986 1.309 2.6 2.285.616.977.924 2.066.924 3.267h-1.817c0-1.455-.498-2.625-1.494-3.508-.996-.884-2.334-1.326-4.014-1.326-1.63 0-2.93.364-3.896 1.091-.967.728-1.45 1.678-1.45 2.85 0 1.083.434 1.967 1.303 2.65.87.684 2.261 1.287 4.175 1.81 1.914.522 3.365 1.064 4.35 1.626.987.561 1.73 1.233 2.227 2.014.498.781.747 1.704.747 2.769 0 1.68-.67 3.027-2.014 4.043-1.342 1.015-3.112 1.523-5.31 1.523-1.504 0-2.883-.269-4.138-.806s-2.207-1.289-2.856-2.256c-.65-.966-.975-2.075-.975-3.325h1.802c0 1.504.562 2.69 1.685 3.56 1.123.869 2.617 1.304 4.482 1.304 1.66 0 2.993-.367 4-1.1 1.005-.732 1.508-1.703 1.508-2.914zm18.585 9.2h-1.48V89.671h1.48v25.283zm23.155-6.593l.117.454.132-.454 6.709-18.691h1.977L284.85 111h-1.729l-7.939-21.328h1.963l6.709 18.691zM300.22 111h-1.801V89.672h1.801V111zm15.855-8.877h-6.196V111h-1.816V89.672h6.928c2.276 0 4.053.552 5.332 1.655 1.28 1.104 1.92 2.647 1.92 4.63 0 1.366-.401 2.572-1.202 3.617-.8 1.045-1.875 1.768-3.222 2.168l5.332 9.068v.19h-1.92l-5.156-8.877zm-6.196-1.538h5.523c1.513 0 2.729-.43 3.647-1.29.918-.858 1.377-1.972 1.377-3.339 0-1.504-.479-2.67-1.436-3.5-.957-.831-2.3-1.246-4.028-1.246h-5.083v9.375zm32.671-9.375h-7.31V111h-1.801V91.21h-7.295v-1.538h16.406v1.538zm20.235-1.538v14.56c-.01 1.436-.327 2.686-.952 3.75-.625 1.065-1.506 1.883-2.644 2.454-1.138.571-2.444.857-3.919.857-2.246 0-4.045-.613-5.397-1.838-1.353-1.226-2.054-2.923-2.103-5.09V89.671h1.788V104.1c0 1.796.512 3.19 1.538 4.182 1.025.99 2.417 1.487 4.174 1.487 1.758 0 3.147-.499 4.168-1.495 1.02-.996 1.53-2.382 1.53-4.16V89.672h1.817zm18.316 15.351h-9.683L369.222 111h-1.89l8.072-21.328h1.714l8.07 21.328h-1.874l-2.212-5.977zm-9.126-1.538h8.555l-4.278-11.616-4.277 11.616zm20.264 5.992h10.532V111h-12.348V89.672h1.816v19.805zm33.453-7.354h-6.196V111h-1.817V89.672h6.929c2.275 0 4.053.552 5.332 1.655 1.28 1.104 1.919 2.647 1.919 4.63 0 1.366-.4 2.572-1.201 3.617s-1.875 1.768-3.223 2.168l5.332 9.068v.19h-1.919l-5.156-8.877zm-6.196-1.538h5.522c1.514 0 2.73-.43 3.648-1.29.918-.858 1.377-1.972 1.377-3.339 0-1.504-.479-2.67-1.436-3.5-.957-.831-2.3-1.246-4.028-1.246h-5.083v9.375zm31.148.19h-9.976v8.702h11.47V111h-13.272V89.672h13.198v1.538H440.67v8.042h9.976v1.523zm18.901 4.248h-9.682L457.666 111h-1.89l8.072-21.328h1.714L473.633 111h-1.875l-2.212-5.977zm-9.126-1.538h8.555l-4.277-11.616-4.278 11.616zm20.264 5.992h10.533V111h-12.349V89.672h1.816v19.805zM498.971 111h-1.802V89.672h1.802V111zm21.934-19.79h-7.31V111h-1.801V91.21h-7.295v-1.538h16.406v1.538zm11.797 10.093l6.519-11.631h2.08l-7.705 13.3V111h-1.802v-8.027l-7.69-13.301h2.138l6.46 11.63z" fill="currentColor" fill-rule="evenodd"/></svg>
